X: 1
T: Loughrea, The
M: 2/4
L: 1/8
R: polka
K: Gmaj
|: B/A/ |\ 
GD G>A | Bd ed | eg/e/ dB | AG EB/A/ |
GD GG/A/ | B/c/d ed | e/f/g/e/ dB | AG G :|
|: A |\
Bd ed | gd ed | eg/e/ dB |
[1 AG ED | B/c/d ed | g/a/g/f/ ed | eg/e/ dB | AG G :|
[2 AG G/F/E/D | GD GG/A/ | Bd ed | e/f/g/e/ dB | AF G |]
